X: 852
T: Cuzle together
R: slip-jig, triple hornpipe
B: Robert Bremner "A Collection of Scots Reels or Country Dances" 1757 p.85 #2
S: http://imslp.org/wiki/A_Collection_of_Scots_Reels_or_Country_Dances_(Bremner,_Robert)
Z: 2013 John Chambers <jc:trillian.mit.edu>
M: 9/8
L: 1/8
K: Amix
% - - - - - - - - - - - - - - - - - - - - - - - - -
V: 1
|:\
Tc2e- ecf Te2A | Tc2e- ece g2B |\
Tc2e- ece aeg | fdf ece g2B :|
|:\
a2a- aec a2e | a2a- aec g2B |\
a2a- aec aeg | fdf ece g2B :|
% - - - - - - - - - - - - - - - - - - - - - - - - -
V: 2 clef=bass middle=d
|:\
a3 a3 a3 | a3 a3 b3 |\
a3 a3 a3 | d'3 c'3 b3 :|
|:\
a3 a3 a3 | a3 a3 b3 |\
a3 a3 a3 | d'3 c'3 b3 :|
% - - - - - - - - - - - - - - - - - - - - - - - - -

%%sep 1 1 500
%%sep 1 1 500
